static/assets/template/assets/img/icons/essential/detailed/Location.svg

<svg height="134" viewBox="0 0 105 134" width="105" xmlns="http://www.w3.org/2000/svg"><g fill="none" fill-rule="evenodd" transform="translate(2 1)"><path d="m32.8 43c0-10.1 8.2-18.3 18.3-18.3s18.3 8.2 18.3 18.3-8.2 18.3-18.3 18.3-18.3-8.2-18.3-18.3zm18.3-42.3c-24.2 0-43.9 19.7-43.9 43.9 0 17.6 23.2 42.9 35.9 55.3 2.8 2.7 6.6 3.8 10.1 3.1.3 0 .5-.1.8-.2.1 0 .2 0 .3-.1 1.7-.5 3.4-1.5 4.8-2.8 10.6-10.4 28.5-29.6 34.1-46 .8-2.4 1.4-4.8 1.6-7.1.1-.8.1-1.5.1-2.3.1-24.1-19.6-43.8-43.8-43.8z" fill-rule="nonzero"/><path d="m73 42.2c2.3 14.3-9.9 26.5-24.1 24.2-12.3-2-20.4-14.7-16.4-27 6.7-21.2 37-18.4 40.5 2.8zm20.2-4.3c-.2-.6-.4-1.3-.6-1.9s-.5-1.2-.7-1.8c-4.6-10.7-13.7-19-24.9-22.5-.5-.1-1-.3-1.5-.4-3.4-.9-6.9-1.4-10.5-1.4-4.6 0-9.1.8-13.3 2.3-.2 0-.3.1-.4.1-11.5 4.2-20.5 13.5-24.3 25.2-.2.5-.3.9-.4 1.4l-.3 1.1c-.8 3-1.2 6.1-1.2 9.4v.5c0 2.2.4 4.4 1.1 6.8 0 .1.1.3.1.4 1 3.3 2.6 6.7 4.5 10.2.5.9 1 1.7 1.6 2.6 0 1.5 11.7 16.9 25.4 30.4.7.7 1.4 1.2 2.1 1.6 1.2.7 2.3 1.1 3.5 1.1.3 0 .5-.1.8-.2.1 0 .2 0 .3-.1 1.9-.3 3.7-1.5 5.5-3.3 22.5-22.1 30.7-36.2 33.4-45.5.8-2.4 1.4-4.8 1.6-7.1-.3-3-.9-6-1.8-8.9z" fill-rule="nonzero"/><path d="m72.5 39.7c.1.3.2.6.3.9.1.2.1.5.1.7.1.3.1.6.2.8 2.3 14.3-9.9 26.5-24.1 24.2-9.5-1.5-17.4-9.9-17.4-20.7-.1-24.3 34.1-28.5 40.9-5.9zm20.7-1.8c-.2-.6-.4-1.3-.6-1.9s-.5-1.2-.7-1.8c-4.9-11.9-14.3-19.4-24.9-22.5-.5-.1-1-.3-1.5-.4-7.8-2-16.2-1.7-23.8.9-.2 0-.3.1-.4.1-10.9 3.8-20.2 12.2-24.3 25.2-.2.5-.3.9-.4 1.4l-.3 1.1c-.9 3.4-1.3 6.5-1.2 9.4 0 2.5.4 4.9 1.1 7.3 0 .1.1.3.1.4 1 3.3 2.5 6.6 4.5 10.2.5.9 1 1.7 1.6 2.6 0 1.5 11.7 16.9 25.4 30.4.7.7 1.4 1.2 2.1 1.6 1.4.9 2.9 1.1 4.3.9.1 0 .2 0 .3-.1 1.9-.3 3.7-1.5 5.5-3.3 22.5-22.1 30.7-36.2 33.4-45.5 2.4-8.9-.2-13.3-.2-16z" fill="#bad8ff" fill-rule="nonzero"/><path d="m93.2 37.9c-11.9-38-66-36.9-76.7.9-3.4 11.9-1 20.1 5.7 31 0 .7 15.4 16.3 15.9 16.8 5.4 5.3 14 5.3 19.4 0 10.6-10.4 27.3-28.2 36.6-45.2-.4-1.8-.9-3.5-.9-3.5zm-54-8.6c10.7-8.5 28.6-4.9 33.2 10.4.1.3.2.6.3.9.1.2.1.5.1.7.1.3.1.6.2.8 2.3 14.3-9.9 26.5-24.1 24.2-12.4-2-20.4-14.9-16.4-27 1.4-4.3 3.8-7.6 6.7-10z" fill-rule="nonzero"/><g stroke-linecap="round" stroke-linejoin="round" stroke-width="3"><path d="m28.4 7c-.1.1-.2.1-.3.2m41.3 82c12-13.2 25.6-31.1 25.6-44.6 0-24.3-19.7-43.9-43.9-43.9-4.4 0-8.6.6-12.6 1.8m-16.5 9.2c-9.1 8-14.8 19.8-14.8 32.9 0 17.6 23.2 42.9 35.9 55.3 4.5 4.4 11.6 4.4 16 0l1-1m-13.3-38.1c-8-1.9-14-9.2-14-17.8 0-5.7 2.6-10.8 6.8-14.2m15.7 32c-.1 0-.1 0-.2 0m-8.6-35.6c1.5-.4 3-.6 4.6-.6 10.1 0 18.3 8.2 18.3 18.3 0 4.4-1.5 8.4-4.1 11.6"/><path d="m71.7 101.7c25.3 6.4 11.3 19.7-21 19.7-29.9 0-43.7-11.2-26.6-17.9"/><path d="m22.3 94.9h.1"/><path d="m11.5 98.7c.7-.3 1.4-.6 2.2-.9"/><path d="m73.2 128.9c-6.6 1.3-14.1 2-22.5 2-35.7 0-55.8-12.9-49.4-24.2"/><path d="m81.9 95.7c24.9 7.6 24.2 20.7 6.7 28.6"/></g></g></svg>

<?xml version="1.0" encoding="UTF-8"?>
<svg width="105px" height="134px" viewBox="0 0 105 134" version="1.1" xmlns="http://www.w3.org/2000/svg" xmlns:xlink="http://www.w3.org/1999/xlink">
    <!-- Generator: Sketch 51.2 (57519) - http://www.bohemiancoding.com/sketch -->
    <title>Location</title>
    <desc>Created with Sketch.</desc>
    <defs></defs>
    <g id="Page-1" stroke="none" stroke-width="1" fill="none" fill-rule="evenodd">
        <g id="Location" transform="translate(2.000000, 1.000000)">
            <path d="M32.8,43 C32.8,32.9 41,24.7 51.1,24.7 C61.2,24.7 69.4,32.9 69.4,43 C69.4,53.1 61.2,61.3 51.1,61.3 C41,61.3 32.8,53.1 32.8,43 Z M51.1,0.7 C26.9,0.7 7.2,20.4 7.2,44.6 C7.2,62.2 30.4,87.5 43.1,99.9 C45.9,102.6 49.7,103.7 53.2,103 C53.5,103 53.7,102.9 54,102.8 C54.1,102.8 54.2,102.8 54.3,102.7 C56,102.2 57.7,101.2 59.1,99.9 C69.7,89.5 87.6,70.3 93.2,53.9 C94,51.5 94.6,49.1 94.8,46.8 C94.9,46 94.9,45.3 94.9,44.5 C95,20.4 75.3,0.7 51.1,0.7 Z" id="Shape" class="fill-neutral" fill-rule="nonzero"></path>
            <path d="M73,42.2 C75.3,56.5 63.1,68.7 48.9,66.4 C36.6,64.4 28.5,51.7 32.5,39.4 C39.2,18.2 69.5,21 73,42.2 Z M93.2,37.9 C93,37.3 92.8,36.6 92.6,36 C92.4,35.4 92.1,34.8 91.9,34.2 C87.3,23.5 78.2,15.2 67,11.7 C66.5,11.6 66,11.4 65.5,11.3 C62.1,10.4 58.6,9.9 55,9.9 C50.4,9.9 45.9,10.7 41.7,12.2 C41.5,12.2 41.4,12.3 41.3,12.3 C29.8,16.5 20.8,25.8 17,37.5 C16.8,38 16.7,38.4 16.6,38.9 L16.3,40 C15.5,43 15.1,46.1 15.1,49.4 C15.1,49.6 15.1,49.7 15.1,49.9 C15.1,52.1 15.5,54.3 16.2,56.7 C16.2,56.8 16.3,57 16.3,57.1 C17.3,60.4 18.9,63.8 20.8,67.3 C21.3,68.2 21.8,69 22.4,69.9 C22.4,71.4 34.1,86.8 47.8,100.3 C48.5,101 49.2,101.5 49.9,101.9 C51.1,102.6 52.2,103 53.4,103 C53.7,103 53.9,102.9 54.2,102.8 C54.3,102.8 54.4,102.8 54.5,102.7 C56.4,102.4 58.2,101.2 60,99.4 C82.5,77.3 90.7,63.2 93.4,53.9 C94.2,51.5 94.8,49.1 95,46.8 C94.7,43.8 94.1,40.8 93.2,37.9 Z" id="Shape" class="fill-primary-100" fill-rule="nonzero"></path>
            <path d="M72.5,39.7 C72.6,40 72.7,40.3 72.8,40.6 C72.9,40.8 72.9,41.1 72.9,41.3 C73,41.6 73,41.9 73.1,42.1 C75.4,56.4 63.2,68.6 49,66.3 C39.5,64.8 31.6,56.4 31.6,45.6 C31.5,21.3 65.7,17.1 72.5,39.7 Z M93.2,37.9 C93,37.3 92.8,36.6 92.6,36 C92.4,35.4 92.1,34.8 91.9,34.2 C87,22.3 77.6,14.8 67,11.7 C66.5,11.6 66,11.4 65.5,11.3 C57.7,9.3 49.3,9.6 41.7,12.2 C41.5,12.2 41.4,12.3 41.3,12.3 C30.4,16.1 21.1,24.5 17,37.5 C16.8,38 16.7,38.4 16.6,38.9 L16.3,40 C15.4,43.4 15,46.5 15.1,49.4 C15.1,51.9 15.5,54.3 16.2,56.7 C16.2,56.8 16.3,57 16.3,57.1 C17.3,60.4 18.8,63.7 20.8,67.3 C21.3,68.2 21.8,69 22.4,69.9 C22.4,71.4 34.1,86.8 47.8,100.3 C48.5,101 49.2,101.5 49.9,101.9 C51.3,102.8 52.8,103 54.2,102.8 C54.3,102.8 54.4,102.8 54.5,102.7 C56.4,102.4 58.2,101.2 60,99.4 C82.5,77.3 90.7,63.2 93.4,53.9 C95.8,45 93.2,40.6 93.2,37.9 Z" id="Shape" fill="#BAD8FF" fill-rule="nonzero"></path>
            <path d="M93.2,37.9 C81.3,-0.1 27.2,1 16.5,38.8 C13.1,50.7 15.5,58.9 22.2,69.8 C22.2,70.5 37.6,86.1 38.1,86.6 C43.5,91.9 52.1,91.9 57.5,86.6 C68.1,76.2 84.8,58.4 94.1,41.4 C93.7,39.6 93.2,37.9 93.2,37.9 Z M39.2,29.3 C49.9,20.8 67.8,24.4 72.4,39.7 C72.5,40 72.6,40.3 72.7,40.6 C72.8,40.8 72.8,41.1 72.8,41.3 C72.9,41.6 72.9,41.9 73,42.1 C75.3,56.4 63.1,68.6 48.9,66.3 C36.5,64.3 28.5,51.4 32.5,39.3 C33.9,35 36.3,31.7 39.2,29.3 Z" id="Shape" class="fill-primary-100" fill-rule="nonzero"></path>
            <path d="M28.4,7 C28.3,7.1 28.2,7.1 28.1,7.2 M69.4,89.2 C81.4,76 95,58.1 95,44.6 C95,20.3 75.3,0.7 51.1,0.7 C46.7,0.7 42.5,1.3 38.5,2.5 M22,11.7 C12.9,19.7 7.2,31.5 7.2,44.6 C7.2,62.2 30.4,87.5 43.1,99.9 C47.6,104.3 54.7,104.3 59.1,99.9 C59.4,99.6 59.7,99.3 60.1,98.9 M46.8,60.8 C38.8,58.9 32.8,51.6 32.8,43 C32.8,37.3 35.4,32.2 39.6,28.8 M55.3,60.8 C55.2,60.8 55.2,60.8 55.1,60.8 M46.5,25.2 C48,24.8 49.5,24.6 51.1,24.6 C61.2,24.6 69.4,32.8 69.4,42.9 C69.4,47.3 67.9,51.3 65.3,54.5" id="Shape" class="stroke-primary" stroke-width="3" stroke-linecap="round" stroke-linejoin="round"></path>
            <path d="M71.7,101.7 C97,108.1 83,121.4 50.7,121.4 C20.8,121.4 7,110.2 24.1,103.5" id="Shape" class="stroke-primary-300" stroke-width="3" stroke-linecap="round" stroke-linejoin="round"></path>
            <path d="M22.3,94.9 C22.3,94.9 22.4,94.9 22.4,94.9" id="Shape" class="stroke-primary-300" stroke-width="3" stroke-linecap="round" stroke-linejoin="round"></path>
            <path d="M11.5,98.7 C12.2,98.4 12.9,98.1 13.7,97.8" id="Shape" class="stroke-primary-300" stroke-width="3" stroke-linecap="round" stroke-linejoin="round"></path>
            <path d="M73.2,128.9 C66.6,130.2 59.1,130.9 50.7,130.9 C15,130.9 -5.1,118 1.3,106.7" id="Shape" class="stroke-primary-300" stroke-width="3" stroke-linecap="round" stroke-linejoin="round"></path>
            <path d="M81.9,95.7 C106.8,103.3 106.1,116.4 88.6,124.3" id="Shape" class="stroke-primary-300" stroke-width="3" stroke-linecap="round" stroke-linejoin="round"></path>
        </g>
    </g>
</svg>
